trunk/public/assets/images/icons/grey/move_up/log.svg

<svg width="16" height="16" xmlns="http://www.w3.org/2000/svg" viewBox="0 0 16 16" shape-rendering="geometricPrecision" fill="#6e6e6e"><defs><mask id="a"><rect fill="#fff" width="100%" height="100%"/><path fill="#000" d="M12.892-.396l-4.507 4.51 2.47 2.47 2.04-2.035 2.036 2.034 2.474-2.47z"/></mask></defs><path fill="#cb1800" d="M12.894 3.136L14.93 5.17l1.06-1.056-3.098-3.096L9.8 4.114l1.056 1.057"/><path d="M1.81 0v16h12.38V0H1.81zm2.555 9.815c-.462 0-.838-.376-.838-.84 0-.463.376-.838.838-.838.464 0 .842.375.842.838 0 .464-.378.84-.842.84zm0-2.658c-.462 0-.838-.376-.838-.844 0-.46.376-.837.838-.837.464 0 .842.376.842.837 0 .468-.378.844-.842.844zm0-2.662c-.462 0-.838-.376-.838-.838 0-.464.376-.84.838-.84.464 0 .842.376.842.84 0 .462-.378.838-.842.838zm8.11 5.117h-6.08V8.338h6.08v1.274zm0-2.658h-6.08V5.678h6.08v1.276zm0-2.66h-6.08V3.02h6.08v1.274z" mask="url(#a)"/></svg>

<?xml version="1.0"?><!DOCTYPE svg PUBLIC "-//W3C//DTD SVG 1.1//EN" "http://www.w3.org/Graphics/SVG/1.1/DTD/svg11.dtd"><svg width="16px" height="16px" xmlns="http://www.w3.org/2000/svg" viewBox="0 0 16 16" shape-rendering="geometricPrecision" fill="#6e6e6e"><defs><mask id="move_up-path"><rect fill="#fff" width="100%" height="100%"/><polygon points="12.892,-0.396 8.385,4.114 10.856,6.585 12.894,4.549 14.931,6.584 17.404,4.114 " fill="#000"/></mask></defs><polygon points="12.894,3.136 14.931,5.171 15.989,4.114 12.892,1.018 9.799,4.114 10.856,5.171 " fill="#cb1800"/><g mask="url(#move_up-path)"><g><g><path d="M1.81-0.001v16H14.19v-16H1.81z M4.365,9.815c-0.462,0-0.838-0.376-0.838-0.84c0-0.463,0.376-0.838,0.838-0.838 c0.464,0,0.842,0.375,0.842,0.838C5.207,9.439,4.829,9.815,4.365,9.815z M4.365,7.157c-0.462,0-0.838-0.376-0.838-0.844 c0-0.461,0.376-0.837,0.838-0.837c0.464,0,0.842,0.376,0.842,0.837C5.207,6.781,4.829,7.157,4.365,7.157z M4.365,4.495 c-0.462,0-0.838-0.376-0.838-0.838c0-0.464,0.376-0.84,0.838-0.84c0.464,0,0.842,0.376,0.842,0.84 C5.207,4.119,4.829,4.495,4.365,4.495z M12.475,9.612h-6.08V8.338h6.08V9.612z M12.475,6.954h-6.08V5.678h6.08V6.954z M12.475,4.294h-6.08V3.019h6.08V4.294z"/></g></g></g></svg>
